usr/share/om-welcome/images/vlc.svg

<svg viewBox="0 0 48 48" xmlns="http://www.w3.org/2000/svg" xmlns:xlink="http://www.w3.org/1999/xlink">
    <linearGradient id="a">
        <stop stop-color="#fff" offset="0"/>
        <stop stop-color="#f5f5f5" offset="1"/>
    </linearGradient>
    <linearGradient id="b" x1="13" x2="42" y1="14" y2="43" gradientUnits="userSpaceOnUse">
        <stop stop-color="#ffb24d" offset="0"/>
        <stop stop-color="#ffa733" offset=".36206895"/>
        <stop stop-color="#f28100" offset="1"/>
    </linearGradient>
    <linearGradient id="c" x1="23" x2="42" y1="25" y2="44" gradientUnits="userSpaceOnUse">
        <stop stop-color="#e5840b" offset="0"/>
        <stop stop-color="#f27a00" offset="1"/>
    </linearGradient>
    <linearGradient id="d" x1="15" x2="25" y1="27" y2="37" gradientUnits="userSpaceOnUse" xlink:href="#a"/>
    <linearGradient id="e" x1="19" x2="27" y1="13" y2="21" gradientUnits="userSpaceOnUse" xlink:href="#a"/>
    <linearGradient id="f" x1="16" x2="34" y1="22" y2="28" gradientUnits="userSpaceOnUse">
        <stop stop-color="#ffb24d" offset="0"/>
        <stop stop-color="#ffa733" offset=".15737528"/>
        <stop stop-color="#f28100" offset="1"/>
    </linearGradient>
    <path d="m11 29a1.0001 1.0001 0 0 0 -.955078.705078l-4 13.000002a1.0001 1.0001 0 0 0 .955078 1.29492h34a1.0001 1.0001 0 0 0 .95508-1.29492l-4.000002-13.000002a1.0001 1.0001 0 0 0 -.955078-.705078z" fill="url(#b)"/>
    <path d="m19 29-5.121094 5.121094 8.878906 8.878906h19.242188a1.0001 1.0001 0 0 0-0.044922-0.294922l-4-13a1.0001 1.0001 0 0 0-0.955078-0.705078h-2z" fill="url(#c)"/>
    <path d="m23.996094 4a3.0003 3.0003 0 0 0-2.853516 2.085938l-8 25a3.0003 3.0003 0 0 0 1.324219 3.492187c2.876121 1.710353 6.51365 2.421875 9.533203 2.421875s6.657082-0.711522 9.533203-2.421875a3.0003 3.0003 0 0 0 1.324219-3.492187l-8-25a3.0003 3.0003 0 0 0-2.861328-2.085938z" fill="url(#f)"/>
    <path d="m33.431641 26.632812c-2.860269 1.668251-6.446617 2.367188-9.431641 2.367188s-6.571372-.698937-9.431641-2.367188l-1.425781 4.453126a3.0003 3.0003 0 0 0 1.324219 3.492187c2.876121 1.710353 6.51365 2.421875 9.533203 2.421875s6.657082-.711522 9.533203-2.421875a3.0003 3.0003 0 0 0 1.324219-3.492187z" fill="url(#d)"/>
    <path d="m19.117188 12.412109-4.548829 14.220703 2.220703-6.939453c2.366071.909524 4.960327 1.306641 7.210938 1.306641s4.844867-.397117 7.210938-1.306641l2.220703 6.939453-4.548829-14.220703c-1.666838.402195-3.353788.587891-4.882812.587891s-3.215974-.185696-4.882812-.587891z" fill="url(#e)"/>
    <path d="m6.0019531 43a1.0001 1.0001 0 0 0 .9980469 1h34a1.0001 1.0001 0 0 0 1-1z" fill="#d97716"/>
</svg>

<?xml version="1.0" encoding="UTF-8" standalone="no"?>
<svg
   viewBox="0 0 32 32"
   version="1.1"
   id="svg15"
   sodipodi:docname="vlc.svg"
   width="32"
   height="32"
   inkscape:version="1.3.2 (091e20ef0f, 2023-11-25)"
   xmlns:inkscape="http://www.inkscape.org/namespaces/inkscape"
   xmlns:sodipodi="http://sodipodi.sourceforge.net/DTD/sodipodi-0.dtd"
   xmlns:xlink="http://www.w3.org/1999/xlink"
   xmlns="http://www.w3.org/2000/svg"
   xmlns:svg="http://www.w3.org/2000/svg">
  <defs
     id="defs15" />
  <sodipodi:namedview
     id="namedview15"
     pagecolor="#ffffff"
     bordercolor="#000000"
     borderopacity="0.25"
     inkscape:showpageshadow="2"
     inkscape:pageopacity="0.0"
     inkscape:pagecheckerboard="0"
     inkscape:deskcolor="#d1d1d1"
     inkscape:zoom="5.9479167"
     inkscape:cx="-16.476357"
     inkscape:cy="7.061296"
     inkscape:window-width="1920"
     inkscape:window-height="1009"
     inkscape:window-x="0"
     inkscape:window-y="0"
     inkscape:window-maximized="1"
     inkscape:current-layer="svg15" />
  <linearGradient
     id="a">
    <stop
       stop-color="#fff"
       offset="0"
       id="stop1" />
    <stop
       stop-color="#f5f5f5"
       offset="1"
       id="stop2" />
  </linearGradient>
  <linearGradient
     id="b"
     x1="13"
     x2="42"
     y1="14"
     y2="43"
     gradientUnits="userSpaceOnUse">
    <stop
       stop-color="#ffb24d"
       offset="0"
       id="stop3" />
    <stop
       stop-color="#ffa733"
       offset=".36206895"
       id="stop4" />
    <stop
       stop-color="#f28100"
       offset="1"
       id="stop5" />
  </linearGradient>
  <linearGradient
     id="c"
     x1="23"
     x2="42"
     y1="25"
     y2="44"
     gradientUnits="userSpaceOnUse">
    <stop
       stop-color="#e5840b"
       offset="0"
       id="stop6" />
    <stop
       stop-color="#f27a00"
       offset="1"
       id="stop7" />
  </linearGradient>
  <linearGradient
     id="d"
     x1="15"
     x2="25"
     y1="27"
     y2="37"
     gradientUnits="userSpaceOnUse"
     xlink:href="#a" />
  <linearGradient
     id="e"
     x1="19"
     x2="27"
     y1="13"
     y2="21"
     gradientUnits="userSpaceOnUse"
     xlink:href="#a" />
  <linearGradient
     id="f"
     x1="16"
     x2="34"
     y1="22"
     y2="28"
     gradientUnits="userSpaceOnUse">
    <stop
       stop-color="#ffb24d"
       offset="0"
       id="stop8" />
    <stop
       stop-color="#ffa733"
       offset=".15737528"
       id="stop9" />
    <stop
       stop-color="#f28100"
       offset="1"
       id="stop10" />
  </linearGradient>
  <g
     id="g15"
     transform="matrix(0.74999996,0,0,0.74999996,-2.0001788,-1.9999982)">
    <path
       d="m 11,29 a 1.0001,1.0001 0 0 0 -0.955078,0.705078 l -4,13.000002 A 1.0001,1.0001 0 0 0 7,44 h 34 a 1.0001,1.0001 0 0 0 0.95508,-1.29492 L 37.955078,29.705078 A 1.0001,1.0001 0 0 0 37,29 Z"
       fill="url(#b)"
       id="path10"
       style="fill:url(#b)" />
    <path
       d="M 19,29 13.878906,34.121094 22.757812,43 H 42 a 1.0001,1.0001 0 0 0 -0.04492,-0.294922 l -4,-13 A 1.0001,1.0001 0 0 0 37,29 h -2 z"
       fill="url(#c)"
       id="path11"
       style="fill:url(#c)" />
    <path
       d="m 23.996094,4 a 3.0003,3.0003 0 0 0 -2.853516,2.085938 l -8,25 a 3.0003,3.0003 0 0 0 1.324219,3.492187 C 17.342918,36.288478 20.980447,37 24,37 c 3.019553,0 6.657082,-0.711522 9.533203,-2.421875 a 3.0003,3.0003 0 0 0 1.324219,-3.492187 l -8,-25 A 3.0003,3.0003 0 0 0 23.996094,4 Z"
       fill="url(#f)"
       id="path12"
       style="fill:url(#f)" />
    <path
       d="M 33.431641,26.632812 C 30.571372,28.301063 26.985024,29 24,29 21.014976,29 17.428628,28.301063 14.568359,26.632812 l -1.425781,4.453126 a 3.0003,3.0003 0 0 0 1.324219,3.492187 C 17.342918,36.288478 20.980447,37 24,37 c 3.019553,0 6.657082,-0.711522 9.533203,-2.421875 a 3.0003,3.0003 0 0 0 1.324219,-3.492187 z"
       fill="url(#d)"
       id="path13"
       style="fill:url(#d)" />
    <path
       d="m 19.117188,12.412109 -4.548829,14.220703 2.220703,-6.939453 C 19.155133,20.602883 21.749389,21 24,21 c 2.250611,0 4.844867,-0.397117 7.210938,-1.306641 l 2.220703,6.939453 -4.548829,-14.220703 C 27.215974,12.814304 25.529024,13 24,13 22.470976,13 20.784026,12.814304 19.117188,12.412109 Z"
       fill="url(#e)"
       id="path14"
       style="fill:url(#e)" />
    <path
       d="M 6.0019531,43 A 1.0001,1.0001 0 0 0 7,44 h 34 a 1.0001,1.0001 0 0 0 1,-1 z"
       fill="#d97716"
       id="path15" />
  </g>
</svg>
